!!!!SEGMENT: pl-wn--sd-xvi-o-253_anonim--kancjonal-zamoyskich-piesn-o-bozym-umeczeniu-jezusa-judasz-przedal.krn
!!!cenid: 15xx:811
!!!COM: Anonim
!!!COM-rismID: pe30004985
!!!CDT:
!!!CNT:
!!!GTL: Kancjonał Zamoyskich
!!!OTL: Pieśń o Bożym umęczeniu/Jezusa Judasz przedał
!!!PDT: 1558
!!!AGN:
!!!SMS-siglum: PL-Wn
!!!SMS-shelfmark: SD XVI.O.253
!!!SMS-shelfwork: G
!!!SMS-variant:
!!!SMS-altvar:
!!!NIFC-rismSourceID: 990072135
!!!NIFC-rismChildID: 990072135
!!!NIFC-islandoraID: none
!!!URL-pdf-islandora:
!!!URL-scan: https://polona2.pl/item/piesn-o-bozym-vmeczeniu-nabozna-y-barzo-piekna-wsselkiemu-krzesciyaninowi-potrzebna,MTE3MjIwMA/3 @EN{Scan on Polona} @PL{Skany w portalu Polona}
!!!IIIF: https://polona2.pl/iiif/item/MTE3MjIwMA/manifest.json
!!!ONB-nifc: UWAGA: proszę zapisywać tylko teksty występujące bezpośrednio pod nutami
!!!AIN: 1 alto 1 bass 1 soprn 1 tenor
!!!key: g:dor
**kern	**text	**mod-text	**kern	**text	**mod-text	**kern	**text	**mod-text	**kern	**text	**mod-text
*part4	*part4	*part4	*part3	*part3	*part3	*part2	*part2	*part2	*part1	*part1	*part1
*staff4	*staff4	*staff4	*staff3	*staff3	*staff3	*staff2	*staff2	*staff2	*staff1	*staff1	*staff1
*I"BASS.	*	*	*I"TENOR.	*	*	*I"ALT.	*	*	*I"CANTVS.	*	*
*mI"Basso	*	*	*mI"Tenore	*	*	*mI"Alto	*	*	*mI"Soprano	*	*
*I'B	*	*	*I'T	*	*	*I'A	*	*	*I'S	*	*
*Ibass	*	*	*Itenor	*	*	*Ialto	*	*	*Isoprn	*	*
*ICvox	*	*	*ICvox	*	*	*ICvox	*	*	*ICvox	*	*
*clefF4	*	*	*clefC4	*	*	*clefC3	*	*	*clefC1	*	*
*	*	*	*mclefGv2	*	*	*mclefG2	*	*	*mclefG2	*	*
*k[b-]	*	*	*k[b-]	*	*	*k[b-]	*	*	*k[b-]	*	*
*g:dor	*	*	*g:dor	*	*	*g:dor	*	*	*g:dor	*	*
*M2/1	*	*	*M2/1	*	*	*M2/1	*	*	*M2/1	*	*
*met(C|)	*	*	*met(C|)	*	*	*met(C|)	*	*	*met(C|)	*	*
*mmet(c|)	*	*	*mmet(c|)	*	*	*mmet(c|)	*	*	*mmet(c|)	*	*
=1-	=1-	=1-	=1-	=1-	=1-	=1-	=1-	=1-	=1-	=1-	=1-
*xywh-#6:2734,259,2236,758	*	*	*xywh-#5:2803,253,2208,965	*	*	*xywh-#6:550,373,2073,725	*	*	*xywh-#5:512,299,2108,808	*	*
1G	.	Je-	1G	Je-	Je-	1d	.	Je-	1g	Je-	Je-
1G	.	-zu-	1G	-zu-	-zu-	1d	.	-zu-	1g	-ʒu-	-zu-
=2-	=2-	=2-	=2-	=2-	=2-	=2-	=2-	=2-	=2-	=2-	=2-
1D	.	-sa	1F	-ſá	-sa	1f	.	-sa	1a	-ſa	-sa
1D	.	Ju-	1F	Ju-	Ju-	1f	.	Ju-	1a	Ju-	Ju-
=3-	=3-	=3-	=3-	=3-	=3-	=3-	=3-	=3-	=3-	=3-	=3-
1G	.	-dasz	1G	-daſʒ	-dasz	1d	.	-dasz	1b-	-daſʒ	-dasz
1G	.	prze-	1G	prʒe-	prze-	1e	.	prze-	1b-	prʒe-	prze-
=4-	=4-	=4-	=4-	=4-	=4-	=4-	=4-	=4-	=4-	=4-	=4-
0F	.	-dał	0A	-dał	-dał	0f	.	-dał	1.a	-dał	-dał
.	.	.	.	.	.	.	.	.	2b-\	.	.
=5-	=5-	=5-	=5-	=5-	=5-	=5-	=5-	=5-	=5-	=5-	=5-
1F	.	za	1A	ʒá	za	1f	.	za	1cc	ʒá	za
1G	.	pie-	1d	pie-	pie-	1B-	.	pie-	1b-	pie-	pie-
=6-	=6-	=6-	=6-	=6-	=6-	=6-	=6-	=6-	=6-	=6-	=6-
2A\	.	-nią-	1c	-nia-	-nią-	1c	.	-nią-	1a	-nią-	-nią-
2F\	.	.	.	.	.	.	.	.	.	.	.
1G	.	-dze	1B-	-dʒe	-dze	1d	.	-dze	0g	-dʒe	-dze
=7-	=7-	=7-	=7-	=7-	=7-	=7-	=7-	=7-	=7-	=7-	=7-
0D	.	nę-	0A	nę-	nę-	0d	.	nę-	.	.	.
!	!	!	!	!	!	!	!	!	!LO:SIC:s=1f#i	!	!
.	.	.	.	.	.	.	.	.	1f	nę-	nę-
=8-	=8-	=8-	=8-	=8-	=8-	=8-	=8-	=8-	=8-	=8-	=8-
0GG	.	-dzne	0G	-dʒne/	-dzne	1.B-	.	-dzne	0g	-dʒne/	-dzne
.	.	.	.	.	.	2c/	.	.	.	.	.
*	*	*	*	*	*	*	*	*	*custos:a	*	*
!	!	!	!	!	!	!	!	!	!LO:LB:g=original	!	!
=9-	=9-	=9-	=9-	=9-	=9-	=9-	=9-	=9-	=9-	=9-	=9-
*	*	*	*	*	*	*	*	*	*xywh-#5:612,1085,2030,557	*	*
1D	.	Bóg	1F	Bog	Bóg	1d	.	Bóg	1a	Bog	Bóg
1D	.	O-	1F	o-	O-	1d	.	O-	1a	o-	O-
*	*	*	*	*	*	*custos:d	*	*	*	*	*
!	!	!	!	!	!	!LO:LB:g=original	!	!	!	!	!
=10-	=10-	=10-	=10-	=10-	=10-	=10-	=10-	=10-	=10-	=10-	=10-
*	*	*	*	*	*	*xywh-#6:540,1079,2101,478	*	*	*	*	*
1G	.	-ciec	1G	-ćieć	-ciec	1d	.	-ciec	1b-	-ćiec	-ciec
*custos:E	*	*	*custos:G	*	*	*	*	*	*	*	*
!LO:LB:g=original	!	!	!LO:LB:g=original	!	!	!	!	!	!	!	!
*xywh-#6:2734,995,2136,524	*	*	*xywh-#5:2793,1184,2197,535	*	*	*	*	*	*	*	*
1E	.	Sy-	1G	ſi-	Sy-	1c	.	Sy-	1g	ſy-	Sy-
=11-	=11-	=11-	=11-	=11-	=11-	=11-	=11-	=11-	=11-	=11-	=11-
1D	.	-na	1A	-ná	-na	1d	.	-na	1f	-ná	-na
1D	.	ze-	1A	ʒe-	ze-	1d	.	ze-	1f	ʒe-	ze-
=12-	=12-	=12-	=12-	=12-	=12-	=12-	=12-	=12-	=12-	=12-	=12-
!LO:TX:t=P:problem:kreska pseudotaktowa dopisana ołówkiem	!	!	!	!	!	!	!	!	!	!	!
0G	.	-słał	1G	-ſlał	-słał	1.B-	.	-słał	1.d	-ſlał	-słał
.	.	.	1B-	.	.	.	.	.	.	.	.
.	.	.	.	.	.	2c/	.	.	2e/	.	.
=13-	=13-	=13-	=13-	=13-	=13-	=13-	=13-	=13-	=13-	=13-	=13-
1D	.	na	1A	ná	na	1d	.	na	1f	ná	na
2E/	.	zba-	1G	ʒbá-	zba-	1c	.	zba-	1e	ʒba-	zba-
2C/	.	.	.	.	.	.	.	.	.	.	.
=14-	=14-	=14-	=14-	=14-	=14-	=14-	=14-	=14-	=14-	=14-	=14-
1D	.	-wie-	1F	-wie-	-wie-	1A	.	-wie-	1d	-wie-	-wie-
1AA	.	-nie	1E	-nie	-nie	1A	.	-nie	1c	-nie	-nie
=15-	=15-	=15-	=15-	=15-	=15-	=15-	=15-	=15-	=15-	=15-	=15-
1.A	.	du-	0D	duſ-	du-	1F	.	du-	1.d	du-	du-
.	.	.	.	.	.	1.f	.	.	.	.	.
2G\	.	.	.	.	.	.	.	.	2e/	.	.
=16-	=16-	=16-	=16-	=16-	=16-	=16-	=16-	=16-	=16-	=16-	=16-
1A	.	.	0D	-ſne/	-szne.	.	.	.	2f/	.	.
.	.	.	.	.	.	2e\	.	.	2g/	.	.
*	*	*	*	*	*	*	*	*	*custos:a	*	*
!	!	!	!	!	!	!	!	!	!LO:LB:g=original	!	!
*	*	*	*	*	*	*	*	*	*xywh-#5:601,1621,2075,507	*	*
1F	.	-szne.	.	.	.	1d	.	-szne.	1a	-ſʒne/	-szne.
=17-	=17-	=17-	=17-	=17-	=17-	=17-	=17-	=17-	=17-	=17-	=17-
1F	.	Je-	1A	Je-	Je-	1c	.	Je-	1cc	Je-	Je-
1F	.	-zus	1A	-ʒus	-zus	1c	.	-zus	1a	-ʒus	-zus
*	*	*	*	*	*	*custos:f	*	*	*	*	*
!	!	!	!	!	!	!LO:LB:g=original	!	!	!	!	!
=18-	=18-	=18-	=18-	=18-	=18-	=18-	=18-	=18-	=18-	=18-	=18-
*	*	*	*	*	*	*xywh-#6:526,1544,2119,483	*	*	*	*	*
1D	.	kie-	1d	kie-	kie-	1f	.	kie-	1a	kie-	kie-
*custos:G	*	*	*	*	*	*	*	*	*	*	*
!LO:LB:g=original	!	!	!	!	!	!	!	!	!	!	!
*xywh-#6:2734,1486,2147,529	*	*	*	*	*	*	*	*	*	*	*
1G	.	-dy	1d	-dy	-dy	1g	.	-dy	1b-	-dy	-dy
=19-	=19-	=19-	=19-	=19-	=19-	=19-	=19-	=19-	=19-	=19-	=19-
2A\	.	wie-	1c	wie-	wie-	2e\	.	wie-	1a	wie-	wie-
2F\	.	.	.	.	.	2f\	.	.	.	.	.
*	*	*	*custos:B	*	*	*	*	*	*	*	*
!	!	!	!LO:LB:g=original	!	!	!	!	!	!	!	!
*	*	*	*xywh-#5:2815,1692,2175,552	*	*	*	*	*	*	*	*
1G	.	-cze-	1B-	-cʒe-	-cze-	1d	.	-cze-	1g	-cʒe-	-cze-
=20-	=20-	=20-	=20-	=20-	=20-	=20-	=20-	=20-	=20-	=20-	=20-
0D	.	-rzał	0A	-rʒał	-rzał	0d	.	-rzał	0a	-rʒał	-rzał
=21-	=21-	=21-	=21-	=21-	=21-	=21-	=21-	=21-	=21-	=21-	=21-
1GG	.	ſwe	1G	ſwe	ſwe	1d	.	ſwe	1b-	ſwe	ſwe
1AA	.	cia-	1F	ćiá-	cia-	1c	.	cia-	1a	ćia-	cia-
=22-	=22-	=22-	=22-	=22-	=22-	=22-	=22-	=22-	=22-	=22-	=22-
1GG	.	-ło	1G	-ło	-ło	1B-	.	-ło	1b-	-ło	-ło
1GG	.	roz-	1B-	roʒ-	roz-	1d	.	roz-	0g	roʒ-	roz-
=23-	=23-	=23-	=23-	=23-	=23-	=23-	=23-	=23-	=23-	=23-	=23-
0D	.	-da-	0A	-da-	-da-	1d	.	-da-	.	.	.
!	!	!	!	!	!	!	!	!	!LO:SIC:s=1f#i	!	!
.	.	.	.	.	.	0d	.	-wał	1f	-da-	-da-
=24-	=24-	=24-	=24-	=24-	=24-	=24-	=24-	=24-	=24-	=24-	=24-
!LO:TX:t=P:problem:kreska pseudotaktowa	!	!	!LO:TX:t=P:problem:kreska pseudotaktowa	!	!	!	!	!	!LO:TX:t=P:problem:kreska pseudotaktowa	!	!
0E	.	-wał	0G	-wał/	-wał	.	.	.	0g	-wał/	-wał
.	.	.	.	.	.	2c/	.	.	.	.	.
!	!	!	!	!	!	!LO:TX:t=P:problem:kreska pseudotaktowa	!	!	!	!	!
.	.	.	.	.	.	2B-/	.	.	.	.	.
=25-	=25-	=25-	=25-	=25-	=25-	=25-	=25-	=25-	=25-	=25-	=25-
1F	.	A-	1D	A-	A-	1A	.	A-	1a	A-	A-
*	*	*	*	*	*	*custos:d	*	*	*custos:f	*	*
!	!	!	!	!	!	!LO:LB:g=original	!	!	!	!	!
*	*	*	*	*	*	*xywh-#6:567,2080,2068,515	*	*	*	*	*
1F	.	-po-	1D	-po-	-po-	1d	.	-po-	1a	-po-	-po-
*custos:D	*	*	*	*	*	*	*	*	*	*	*
!LO:LB:g=original	!	!	!	!	!	!	!	!	!LO:LB:g=original	!	!
=26-	=26-	=26-	=26-	=26-	=26-	=26-	=26-	=26-	=26-	=26-	=26-
*xywh-#6:2753,1992,2069,513	*	*	*	*	*	*	*	*	*xywh-#5:620,2141,2063,686	*	*
1D	.	-ſto-	1A	-ſto-	-ſto-	1d	.	-ſto-	1f	-ſto-	-ſto-
!	!	!	!	!	!	!LO:SIC:s=2Bi	!	!	!	!	!
2E/	.	-ły	1G	-ły	-ły	2B-/	.	-ły	1e	-ły	-ły
!LO:TX:t=P:problem:kreska pseudotaktowa dopisana ołówkiem	!	!	!	!	!	!	!	!	!	!	!
2C/	.	.	.	.	.	2c/	.	.	.	.	.
=27-	=27-	=27-	=27-	=27-	=27-	=27-	=27-	=27-	=27-	=27-	=27-
1D	.	ſwe	1F	ſwe	ſwe	2A/	.	ſwe	1f	ſwe	ſwe
!	!	!	!	!	!	!LO:SIC:s=2Bi	!	!	!	!	!
.	.	.	.	.	.	2B-/	.	.	.	.	.
1C	.	ſmu-	1E	ſmu-	ſmu-	1c	.	ſmu-	1g	ſmu-	ſmu-
=28-	=28-	=28-	=28-	=28-	=28-	=28-	=28-	=28-	=28-	=28-	=28-
1.D	.	-tne	0D	-tne	-tne	1A	.	-tne	0f	-tne	-tne
.	.	.	.	.	.	1d	.	.	.	.	.
2BB-/	.	.	.	.	.	.	.	.	.	.	.
*	*	*	*custos:G	*	*	*	*	*	*	*	*
!	!	!	!LO:LB:g=original	!	!	!	!	!	!	!	!
=29-	=29-	=29-	=29-	=29-	=29-	=29-	=29-	=29-	=29-	=29-	=29-
*	*	*	*xywh-#5:2900,2203,2075,580	*	*	*	*	*	*	*	*
*col	*	*	*	*	*	*	*	*	*	*	*
1C	.	ſwo-	1G	ſwo-	ſwo-	1e	.	ſwo-	1g	ſwo-	ſwo-
*Xcol	*	*	*	*	*	*	*	*	*	*	*
1AA	.	.	1F	-ią	.	1c	.	.	1a	-ią	.
=30-	=30-	=30-	=30-	=30-	=30-	=30-	=30-	=30-	=30-	=30-	=30-
1GG	.	.	1G	krwią	.	1d	.	.	1.b-	krwia	.
1G	.	-ją	1G	ná-	-ją	1.d	.	-ją	.	.	.
.	.	.	.	.	.	.	.	.	2g\	.	-ją
=31-	=31-	=31-	=31-	=31-	=31-	=31-	=31-	=31-	=31-	=31-	=31-
1.D	.	krwią	0d	-pa-	krwią	.	.	.	1b-	.	krwią
.	.	.	.	.	.	2e\	.	.	.	.	.
.	.	.	.	.	.	1f	.	.	0a	ná-	.
2E/	.	.	.	.	.	.	.	.	.	.	.
*	*	*	*	*	*	*custos:f	*	*	*	*	*
!	!	!	!	!	!	!LO:LB:g=original	!	!	!	!	!
=32-	=32-	=32-	=32-	=32-	=32-	=32-	=32-	=32-	=32-	=32-	=32-
*	*	*	*	*	*	*xywh-#6:553,2578,2110,502	*	*	*	*	*
1F	.	.	1c	.	.	1f	.	krwią	.	.	.
*custos:G	*	*	*	*	*	*	*	*	*	*	*
!LO:LB:g=original	!	!	!	!	!	!	!	!	!	!	!
*xywh-#6:2742,2483,2097,518	*	*	*	*	*	*	*	*	*	*	*
1G	.	na-	1B-	.	na-	1d	.	na-	0g	.	na-
=33-	=33-	=33-	=33-	=33-	=33-	=33-	=33-	=33-	=33-	=33-	=33-
0D	.	-pa-	0A	.	-pa-	0d	.	-pa-	.	.	.
!	!	!	!	!	!	!	!	!	!LO:SIC:s=1f#i	!	!
.	.	.	.	.	.	.	.	.	1f	-pa-	-pa-
=34-	=34-	=34-	=34-	=34-	=34-	=34-	=34-	=34-	=34-	=34-	=34-
!LO:TX:b:t=Vel alio mo(do) ſi\nplacet altius\net pulchrius.:mod=	!	!	!LO:TX:b:t=Alio mo=\ndo ſi pla=\ncet.:mod=	!	!	!LO:TX:b:t=Alio mo=\ndo ſi pla=\ncet.:mod=	!	!	!LO:TX:b:t=Vel ſi placuerit hec ultima clauſula \nalio modo altius et pulchrius.:mod=	!	!
0GGl	.	-wał.	0Gl	-wał.	-wał.	0dl	.	-wał.	0gl	-wał.	-wał.
!	!	!	!LO:LB:g=original	!	!	!	!	!	!LO:LB:g=original	!	!
=35-	=35-	=35-	=35-	=35-	=35-	=35-	=35-	=35-	=35-	=35-	=35-
*	*	*	*xywh-#5:2895,2733,2091,663	*	*	*	*	*	*xywh-#5:609,2805,2086,886	*	*
1F	.	A-	1D	A-	A-	1A	.	A-	1a	A-	A-
1F	.	-po-	1D	-po-	-po-	1d	.	-po-	1a	-po-	-po-
=36-	=36-	=36-	=36-	=36-	=36-	=36-	=36-	=36-	=36-	=36-	=36-
1D	.	-ſto-	1A	-ſto-	-ſto-	1d	.	-ſto-	1f	-ſto-	-ſto-
*custos:E	*	*	*	*	*	*	*	*	*	*	*
!LO:LB:g=original	!	!	!	!	!	!LO:SIC:s=2Bi	!	!	!	!	!
*xywh-#6:2731,2985,2119,652	*	*	*	*	*	*	*	*	*	*	*
2E/	.	-ły	1G	-ły	-ły	2B-/	.	-ły	1e	-ły	-ły
*	*	*	*	*	*	*custos:c	*	*	*	*	*
!	!	!	!	!	!	!LO:LB:g=original	!	!	!	!	!
*	*	*	*	*	*	*xywh-#6:582,3079,2087,488	*	*	*	*	*
2C/	.	.	.	.	.	2c/	.	.	.	.	.
=37-	=37-	=37-	=37-	=37-	=37-	=37-	=37-	=37-	=37-	=37-	=37-
1D	.	ſwe	1F	ſwe	ſwe	1A	.	ſwe	1d	ſwe	ſwe
!	!	!	!	!	!	!	!	!	!LO:SIC:s=1c#i	!	!
1AA	.	ſmu-	1E	ſmu-	ſmu-	1A	.	ſmu-	1c	ſmu-	ſmu-
=38-	=38-	=38-	=38-	=38-	=38-	=38-	=38-	=38-	=38-	=38-	=38-
!LO:TX:t=P:problem:brak dalszego fragmentu B, defekt źródła	!	!	!	!	!	!	!	!	!	!	!
!LO:MO:mod=0BB-@	!	!	!	!	!	!	!	!	!	!	!
0ryy	.	-tne	0D	-tne	-tne	1F	.	-tne	1d	-tne	.
.	.	.	.	.	.	1G	.	.	1dd	ſwo-	-tne
=39-	=39-	=39-	=39-	=39-	=39-	=39-	=39-	=39-	=39-	=39-	=39-
!LO:MO:mod=1GG@	!	!	!	!	!	!	!	!	!	!	!
0ryy	.	swo-	1G	ſwo-	swo-	1B-	.	swo-	1dd	-ią	swo-
!LO:MO:null:mod=1AA@	!	!	!	!	!	!	!	!	!	!	!
.	.	.	1F	-ią	.	1A	.	.	1cc	krwią	.
=40-	=40-	=40-	=40-	=40-	=40-	=40-	=40-	=40-	=40-	=40-	=40-
!LO:MO:mod=1GG@	!	!	!	!	!	!	!	!	!	!	!
0ryy	.	.	1G	krwią	.	1d	.	.	1.b-	ná-	.
!LO:MO:null:mod=1G@	!	!	!	!	!	!	!	!	!	!	!
.	.	-ją	1G	ná-	-ją	1.d	.	-ją	.	.	.
.	.	.	.	.	.	.	.	.	2g/	.	-ją
=41-	=41-	=41-	=41-	=41-	=41-	=41-	=41-	=41-	=41-	=41-	=41-
!LO:MO:mod=1.D@	!	!	!	!	!	!	!	!	!	!	!
0ryy	.	krwią	0d	-pa-	krwią	.	.	.	1b-	.	krwią
.	.	.	.	.	.	2e\	.	.	.	.	.
.	.	.	.	.	.	1f	.	.	0a	.	.
!LO:MO:null:mod=2E@	!	!	!	!	!	!	!	!	!	!	!
.	.	.	.	.	.	.	.	.	.	.	.
=42-	=42-	=42-	=42-	=42-	=42-	=42-	=42-	=42-	=42-	=42-	=42-
!LO:MO:mod=1F@	!	!	!	!	!	!	!	!	!	!	!
0ryy	.	.	1c	.	.	1f	.	krwią	.	.	.
!LO:MO:null:mod=1G@	!	!	!	!	!	!	!	!	!	!	!
.	.	na-	1B-	.	na-	2e\	.	na-	0g	.	na-
.	.	.	.	.	.	2d\	.	.	.	.	.
=43-	=43-	=43-	=43-	=43-	=43-	=43-	=43-	=43-	=43-	=43-	=43-
!LO:MO:mod=0D@	!	!	!	!	!	!	!	!	!	!	!
0ryy	.	-pa-	0A	.	-pa-	0d	.	-pa-	.	.	.
!	!	!	!	!	!	!	!	!	!LO:SIC:s=1f#i	!	!
.	.	.	.	.	.	.	.	.	1f	-pa-	-pa-
=44-	=44-	=44-	=44-	=44-	=44-	=44-	=44-	=44-	=44-	=44-	=44-
!LO:MO:mod=0GG;@	!	!	!LO:SIC:s=0G;	!	!	!LO:SIC:s=0d;	!	!	!LO:SIC:s=0g;	!	!
0ryy	.	-wał.	0Gl\	-wał.	-wał.	0dl/	.	-wał.	0gl	-wał.	-wał.
==	==	==	==	==	==	==	==	==	==	==	==
*-	*-	*-	*-	*-	*-	*-	*-	*-	*-	*-	*-
!!!system-decoration: [(*)]
!!LO:MO:ori
!!!RDF**kern: l = terminal long
!!LO:MO:mod
!! !!!RDF**kern: i = editorial accidental
!! !!!RDF**kern: @ = marked note, color=grey
!!LO:MO:end
!!!filter-modern: shed -e "s/TX(.*):t=P:/tx$1:t=P:/LG" | shed -e "s/^custos:/Xcustos:/I" | sic -sq | modori -m | autostem -r | tie -s | humtr -p | shed -e "s/-//B"
!!!ENC: Mateusz Solarz
!!!END: 2022-04-25
!!!ENC: Andrzej Kubiczek
!!!END: 2022-05-08
!!!ENC-modern: Andrzej Kubiczek
!!!END-modern: 2022-07-24
!!!ENC-iiif: Emilia Ziętek
!!!END-iiif: 2022-09-02
!!!YEC: Copyright 2022 Narodowy Instytut Fryderyka Chopina (https://polishscores.org)
!!!YEM: License CC-BY-4.0 (https://creativecommons.org/licenses/by/4.0)
